polaris-icons/icons/newicons/DataVisualizationMajor.svg

<svg width="20" height="20" viewBox="0 0 20 20" fill="none" xmlns="http://www.w3.org/2000/svg">
<path d="M13.5 6.75C13.5 6.33579 13.1642 6 12.75 6C12.3358 6 12 6.33579 12 6.75V10.25C12 10.6642 12.3358 11 12.75 11C13.1642 11 13.5 10.6642 13.5 10.25V6.75Z" fill="black"/>
<path d="M7.25 8.5C7.66421 8.5 8 8.83579 8 9.25V10.25C8 10.6642 7.66421 11 7.25 11C6.83579 11 6.5 10.6642 6.5 10.25V9.25C6.5 8.83579 6.83579 8.5 7.25 8.5Z" fill="black"/>
<path d="M10.75 8C10.75 7.58579 10.4142 7.25 10 7.25C9.58579 7.25 9.25 7.58579 9.25 8V10.25C9.25 10.6642 9.58579 11 10 11C10.4142 11 10.75 10.6642 10.75 10.25V8Z" fill="black"/>
<path fill-rule="evenodd" clip-rule="evenodd" d="M2.5 3.75C2.5 3.33579 2.83579 3 3.25 3H16.75C17.1642 3 17.5 3.33579 17.5 3.75C17.5 4.16421 17.1642 4.5 16.75 4.5H16.5V11C16.5 12.6569 15.1569 14 13.5 14H12.9572L13.7115 16.2628C13.8425 16.6557 13.6301 17.0805 13.2372 17.2115C12.8442 17.3425 12.4195 17.1301 12.2885 16.7371L11.3761 14H8.62388L7.7115 16.7371C7.58052 17.1301 7.15578 17.3425 6.76282 17.2115C6.36986 17.0805 6.15749 16.6557 6.28848 16.2628L7.04274 14H6.5C4.84315 14 3.5 12.6569 3.5 11V4.5H3.25C2.83579 4.5 2.5 4.16421 2.5 3.75ZM5 4.5H15V11C15 11.8284 14.3284 12.5 13.5 12.5H6.5C5.67157 12.5 5 11.8284 5 11V4.5Z" fill="black"/>
</svg>

<svg viewBox="0 0 20 20" fill="none" xmlns="http://www.w3.org/2000/svg"><path d="M13.5 6.75a.75.75 0 0 0-1.5 0v3.5a.75.75 0 0 0 1.5 0v-3.5Z" fill="#000"/><path d="M7.25 8.5a.75.75 0 0 1 .75.75v1a.75.75 0 0 1-1.5 0v-1a.75.75 0 0 1 .75-.75Z" fill="#000"/><path d="M10.75 8a.75.75 0 0 0-1.5 0v2.25a.75.75 0 0 0 1.5 0v-2.25Z" fill="#000"/><path fill-rule="evenodd" clip-rule="evenodd" d="M2.5 3.75a.75.75 0 0 1 .75-.75h13.5a.75.75 0 0 1 0 1.5h-.25v6.5a3 3 0 0 1-3 3h-.543l.754 2.263a.75.75 0 0 1-1.422.474l-.913-2.737h-2.752l-.913 2.737a.75.75 0 1 1-1.423-.474l.755-2.263h-.543a3 3 0 0 1-3-3v-6.5h-.25a.75.75 0 0 1-.75-.75Zm2.5.75h10v6.5a1.5 1.5 0 0 1-1.5 1.5h-7a1.5 1.5 0 0 1-1.5-1.5v-6.5Z" fill="#000"/></svg>
